public/images/s1.svg

<svg width="92" height="92" viewBox="0 0 92 92" fill="none" xmlns="http://www.w3.org/2000/svg">
<path d="M8.96209 31.472V26.3709M8.96032 42.7704V37.6692M90 63.5752V78.9017H67.4635M74.9302 42.7704H82.8449C86.7969 42.7704 90 45.9734 90 49.9237V57.378M62.1422 42.7699H55.5853M72.8292 41.3408V36.8692M72.8292 41.3408L68.5365 45.6335M72.8292 41.3408L74.9309 42.7695L73.3186 50.4154L68.5365 45.6335M64.244 41.3408V36.8692M64.244 41.3408L68.5365 45.6335M64.244 41.3408L62.1422 42.7695L63.7546 50.4154L68.5365 45.6335M54.0344 13.7173V13.4473C54.0344 7.12454 59.1587 2.00018 65.4815 2.00018H71.5914C77.9141 2.00018 83.0384 7.12454 83.0384 13.4473V20.5391M58.422 18.5716L59.0874 16.3268C59.5024 14.9282 60.7867 13.9694 62.2442 13.9694H74.8289C76.2867 13.9694 77.5709 14.928 77.9858 16.3268L79.1788 20.3566V27.0317C79.1788 32.9592 74.3746 37.7634 68.4471 37.7634C65.9698 37.7634 63.6894 36.9245 61.8738 35.5151M79.1788 27.0318H80.9675C82.9432 27.0318 84.5447 25.4303 84.5447 23.4546C84.5447 21.479 82.9432 19.8775 80.9675 19.8775C80.3152 19.8775 79.7054 20.0549 79.1788 20.36M82.8456 57.6149V78.9017M27.756 36.9086V42.7699H33.4796C33.4796 44.2883 32.8768 45.7443 31.8037 46.8175L27.511 51.1102C26.393 52.2282 24.9282 52.7861 23.4633 52.7861C21.9985 52.7861 20.5337 52.228 19.4157 51.1102L15.123 46.8175C14.5865 46.281 14.1679 45.6478 13.8835 44.961C13.5974 44.2724 13.4471 43.5302 13.4471 42.77M13.4471 42.77H19.1706V36.8299M13.4471 42.77L9.15456 42.7699C5.20341 42.7699 2 45.9733 2 49.9242V78.9017H24.5365M36.4147 42.7699H33.4797M8.96138 20.5391V16.5021C8.96138 8.4927 15.4539 2 23.4635 2C27.4683 2 31.0938 3.62225 33.7177 6.2479C35.9016 8.43179 37.3934 11.3098 37.8316 14.522M12.8139 20.3566H17.7897C20.5622 20.3566 23.22 19.2386 25.1589 17.2552L27.4037 14.9604C27.7132 14.6438 28.0797 14.397 28.4804 14.227C28.8793 14.0588 29.312 13.9694 29.7556 13.9694C31.2133 13.9694 32.4976 14.928 32.9124 16.3268L33.5348 18.4284M12.8212 27.0318H11.0325C9.05682 27.0318 7.45529 25.4303 7.45529 23.4546C7.45529 21.479 9.05682 19.8775 11.0325 19.8775C11.6848 19.8775 12.2946 20.0549 12.8212 20.36M12.8212 27.0318C12.8212 32.9594 17.6254 37.7636 23.5529 37.7636C26.03 37.7636 28.3106 36.9247 30.126 35.5153M12.8212 27.0318V20.3568M9.15456 57.6149V78.9017M52.3937 53.8598H60.3084C64.2604 53.8598 67.4635 57.0629 67.4635 61.0131V90H24.5365V75.3906M24.5365 69.1934V61.0131C24.5365 57.0629 27.7396 53.8598 31.6916 53.8598H39.6063M50.2927 52.4302V47.9587M50.2927 52.4302L46 56.7229M50.2927 52.4302L52.3944 53.8589L50.7821 61.5048L46 56.7229M41.7073 52.4302V47.9587M41.7073 52.4302L46 56.7229M41.7073 52.4302L39.6056 53.8589L41.2179 61.5048L46 56.7229M31.4979 31.5087V25.1323C31.4979 18.4769 36.8942 13.0806 43.5496 13.0806H51.4553C53.7591 13.0806 55.8231 14.5043 56.6423 16.6578L57.0645 17.0494C59.2574 19.0812 60.5021 21.9323 60.5021 24.9211V31.6284M35.1718 31.446H35.1788M35.1788 31.446C45.8962 31.446 49.071 26.8636 49.071 26.8636C49.071 27.4933 48.91 28.0227 48.7043 28.4413C48.4592 28.942 48.8778 29.5215 49.4322 29.4517C51.752 29.1566 53.537 28.2408 54.7497 27.3895L56.6422 31.446H56.6492M35.1788 31.446V38.1213M56.6423 38.1213H58.431C60.4067 38.1213 62.0082 36.5197 62.0082 34.5441C62.0082 32.5684 60.4067 30.9669 58.431 30.9669C57.7787 30.9669 57.1689 31.1443 56.6423 31.4494M56.6423 38.1213C56.6423 44.0482 51.8376 48.853 45.9106 48.853C39.9836 48.853 35.1788 44.0482 35.1788 38.1213M56.6423 38.1213V31.4458M35.1788 38.1213H33.3902C31.4145 38.1213 29.813 36.5197 29.813 34.5441C29.813 32.5684 31.4145 30.9669 33.3902 30.9669C34.0424 30.9669 34.6522 31.1443 35.1788 31.4494M47.4324 64.2298L50.2927 85.1549L46 90L41.7073 85.1549L44.5676 64.2298M47.4324 64.2298H44.5676M47.4324 64.2298L49.8469 60.5873M44.5676 64.2298L42.1531 60.5873M60.3089 68.7045V90M31.6911 68.7045V90" stroke="#001489" stroke-width="2.5" stroke-miterlimit="10" stroke-linecap="round" stroke-linejoin="round"/>
</svg>

<svg xmlns="http://www.w3.org/2000/svg" width="92" height="92" fill="none"><path stroke="#001489" stroke-linecap="round" stroke-linejoin="round" stroke-miterlimit="10" stroke-width="2.5" d="M8.962 31.472v-5.101m-.002 16.4v-5.102M90 63.575v15.327H67.463M74.93 42.77h7.915A7.154 7.154 0 0 1 90 49.924v7.454M62.142 42.77h-6.557m17.244-1.43v-4.47m0 4.47-4.292 4.293m4.292-4.292 2.102 1.428-1.612 7.646-4.782-4.782m-4.293-4.292v-4.472m0 4.472 4.293 4.292m-4.293-4.292-2.102 1.428 1.613 7.646 4.782-4.782M54.034 13.717v-.27C54.034 7.125 59.16 2 65.481 2h6.11c6.323 0 11.447 5.125 11.447 11.447v7.092m-24.616-1.967.665-2.245a3.29 3.29 0 0 1 3.157-2.358H74.83c1.458 0 2.742.959 3.157 2.358l1.193 4.03v6.675c0 5.927-4.804 10.731-10.732 10.731-2.477 0-4.758-.838-6.573-2.248m17.305-8.483h1.788a3.577 3.577 0 1 0 0-7.154c-.652 0-1.262.177-1.788.482m3.667 37.255v21.287m-55.09-41.993v5.86h5.724a5.72 5.72 0 0 1-1.676 4.049L27.51 51.11a5.7 5.7 0 0 1-4.048 1.676 5.7 5.7 0 0 1-4.047-1.676l-4.293-4.292a5.72 5.72 0 0 1-1.676-4.048m0 0h5.724v-5.94m-5.724 5.94H9.155A7.155 7.155 0 0 0 2 49.924v28.978h22.537M36.415 42.77H33.48M8.96 20.54v-4.038C8.961 8.492 15.454 2 23.464 2a14.45 14.45 0 0 1 10.254 4.248 14.46 14.46 0 0 1 4.114 8.274m-25.018 5.835h4.976c2.772 0 5.43-1.118 7.369-3.102l2.245-2.295a3.28 3.28 0 0 1 2.352-.991c1.457 0 2.742.959 3.156 2.358l.623 2.101M12.82 27.032h-1.788a3.577 3.577 0 1 1 0-7.154c.652 0 1.262.177 1.788.482m0 6.672c0 5.927 4.804 10.732 10.732 10.732a10.68 10.68 0 0 0 6.573-2.249m-17.305-8.483v-6.675M9.155 57.615v21.287M52.394 53.86h7.914a7.154 7.154 0 0 1 7.155 7.153V90H24.537V75.39m0-6.197v-8.18a7.154 7.154 0 0 1 7.155-7.153h7.914m10.687-1.43V47.96m0 4.471L46 56.723m4.293-4.293 2.101 1.429-1.612 7.646L46 56.723m-4.293-4.293V47.96m0 4.471L46 56.723m-4.293-4.293-2.101 1.429 1.612 7.646L46 56.723M31.498 31.509v-6.377c0-6.655 5.396-12.051 12.052-12.051h7.905a5.55 5.55 0 0 1 5.187 3.577l.422.391a10.73 10.73 0 0 1 3.438 7.872v6.707m-25.33-.182h.007m0 0c10.717 0 13.892-4.582 13.892-4.582 0 .63-.161 1.159-.367 1.577-.245.501.174 1.08.728 1.01a11.84 11.84 0 0 0 5.318-2.061l1.892 4.056h.007m-21.47 0v6.675m21.463 0h1.789a3.577 3.577 0 1 0 0-7.154c-.652 0-1.262.177-1.789.482m0 6.672c0 5.927-4.804 10.732-10.731 10.732s-10.732-4.805-10.732-10.732m21.463 0v-6.675M35.18 38.12H33.39a3.577 3.577 0 1 1 0-7.154c.652 0 1.262.177 1.789.482m12.253 32.78 2.86 20.926L46 90l-4.293-4.845 2.86-20.925m2.865 0h-2.864m2.864 0 2.415-3.643m-5.28 3.643-2.414-3.643m18.156 8.117V90M31.69 68.704V90"/></svg>
